svg/bitbucket.svg

<svg xmlns="http://www.w3.org/2000/svg" viewBox="0 0 24 24"><path d="M2.65 3C2.3 3 2 3.3 2 3.65v.12l2.73 16.5c.07.42.43.73.85.73h13.05c.31 0 .59-.22.64-.54L22 3.77a.643.643 0 0 0-.54-.73c-.03-.01-.07-.01-.11-.01zM14.1 14.95H9.94L8.81 9.07h6.3z"/></svg>

<?xml version="1.0" encoding="UTF-8"?><!DOCTYPE svg PUBLIC "-//W3C//DTD SVG 1.1//EN" "http://www.w3.org/Graphics/SVG/1.1/DTD/svg11.dtd"><svg xmlns="http://www.w3.org/2000/svg" xmlns:xlink="http://www.w3.org/1999/xlink" version="1.1" id="mdi-bitbucket" width="24" height="24" viewBox="0 0 24 24"><path d="M2.65 3C2.3 3 2 3.3 2 3.65C2 3.69 2 3.73 2 3.77L4.73 20.27C4.8 20.69 5.16 21 5.58 21H18.63C18.94 21 19.22 20.78 19.27 20.46L22 3.77C22.05 3.42 21.81 3.09 21.46 3.04C21.43 3.03 21.39 3.03 21.35 3.03L2.65 3M14.1 14.95H9.94L8.81 9.07H15.11L14.1 14.95Z" /></svg>
